X: 30262
T: Old Lancashire Hornpipe, The
R: three-two
M: 3/2
K: Dmajor
B2A2G2|:F2FE D2f2e2d2|e2E2E2B2A2G2|F2FE D2f2e2dc|d2D2D2B2A2G2:|
|:F2A2G2B2ABcd|e2E2E2B2A2G2|F2A2G2B2A2Bc|1 d2D2D2B2A2G2:|2 d4d2f2g2a2||
|:f2fe d2f2e2d2|c2d2e2f2g2a2|f2fe d2f2e2dc|1 d4d2f2g2a2:|2 d4d2A2B2c2||
|:d2ec d2ec defg|a2bg a2bg abag|f2ef gfed cABc|1 d2cd edcB A2Bc:|2 d4d2B2A2G2||
|:FAdA FAdA FAdA|EAcA EAcA EAcA|FAdA FAdA e2dc|d2D2D2B2A2G2:|

